modules/hawcons-stroke/icons/icon-43-wind.svg

<?xml version="1.0" encoding="UTF-8" standalone="no"?>
<svg width="32px" height="32px" viewBox="0 0 32 32" version="1.1" xmlns="http://www.w3.org/2000/svg" xmlns:xlink="http://www.w3.org/1999/xlink" xmlns:sketch="http://www.bohemiancoding.com/sketch/ns">
    <!-- Generator: Sketch 3.0.3 (7891) - http://www.bohemiancoding.com/sketch -->
    <title>icon 43 wind</title>
    <desc>Created with Sketch.</desc>
    <defs></defs>
    <g id="Page-1" stroke="none" stroke-width="1" fill="none" fill-rule="evenodd" sketch:type="MSPage">
        <g id="icon-43-wind" sketch:type="MSArtboardGroup" fill="#929292">
            <path d="M30,14 C30,11.790861 28.2046438,10 26,10 C23.790861,10 22,11.7894101 22,14 L23,14 C23,12.3431458 24.3465171,11 26,11 C27.6568542,11 29,12.3465171 29,14 C29,15.6568542 27.6568766,17 25.9920699,17 L3,17 L3,18 L26.0015293,18 C28.2098237,18 30,16.2046438 30,14 L30,14 Z M21,13 C21,11.3431458 19.6534829,10 18,10 C16.3431458,10 15,11.3420576 15,12.991394 L15,13 L16,13 C16,11.8954305 16.8877296,11 18,11 C19.1045695,11 20,11.8877296 20,13 C20,14.1045695 19.1029399,15 17.9941413,15 L6,15 L6,16 L18.0005775,16 C19.6571128,16 21,14.6534829 21,13 L21,13 Z M25,21 C25,22.1045695 24.1122704,23 23,23 L23,23 C21.8954305,23 21,22.1052949 21,21.0057373 L21,21 L22,21 C22,21.5522847 22.4438648,22 23,22 L23,22 C23.5522847,22 24,21.5561352 24,21 L24,21 C24,20.4477153 23.5510798,20 22.992516,20 L9,20 L9,19 L23.0059397,19 C24.1072288,19 25,19.8877296 25,21 L25,21 L25,21 Z" id="wind" sketch:type="MSShapeGroup"></path>
        </g>
    </g>
</svg>

<svg width="32" height="32" xmlns="http://www.w3.org/2000/svg"><path d="M30 14a4 4 0 1 0-8 0h1c0-1.657 1.347-3 3-3 1.657 0 3 1.347 3 3 0 1.657-1.343 3-3.008 3H3v1h23.002A4.002 4.002 0 0 0 30 14zm-9-1c0-1.657-1.347-3-3-3-1.657 0-3 1.342-3 2.991V13h1c0-1.105.888-2 2-2 1.105 0 2 .888 2 2 0 1.105-.897 2-2.006 2H6v1h12c1.657 0 3-1.347 3-3zm4 8c0 1.105-.888 2-2 2-1.105 0-2-.895-2-1.994V21h1c0 .552.444 1 1 1 .552 0 1-.444 1-1 0-.552-.449-1-1.007-1H9v-1h14.006c1.101 0 1.994.888 1.994 2z" fill="#929292" fill-rule="evenodd"/></svg>
